X: 1
T: Buck Moran's
M: 4/4
L: 1/8
R: reel
K: Amaj
|:AF|EFAB cB~B2|cBAc BcAF|EFAB czcf| ecBc A2:|
|:AB|ce~e2 cf~f2|efec BAFA|
[1ce~e2 cf~f2|ecBc A2:|2cefg a3f|ecBc B2|
